lib/brands/logos/svelte.svg

<svg xmlns="http://www.w3.org/2000/svg" fill="none" aria-hidden="true" viewBox="0 0 206 57"><g id="Svelte"><g id="Group"><path id="Vector" fill="#4A4A55" d="M69.6822 40.9818C67.6507 41.0329 65.6513 40.4679 63.947 39.3612C62.3547 38.3111 61.1723 36.7451 60.5984 34.9262L64.0894 33.6436C64.5732 34.7609 65.3637 35.7182 66.3694 36.4044C67.3901 37.0883 68.5961 37.4427 69.8246 37.4197C71.0055 37.4813 72.1709 37.1286 73.1193 36.4224C73.9561 35.7198 74.4117 34.6633 74.3483 33.5726C74.3531 33.0715 74.2371 32.5766 74.0099 32.1299C73.8123 31.7303 73.554 31.3636 73.2441 31.0431C72.8521 30.6863 72.4075 30.3919 71.9259 30.1703C71.332 29.8739 70.8392 29.6483 70.4478 29.4934C70.0559 29.3396 69.48 29.1318 68.7202 28.8701C67.7699 28.5378 67.0574 28.2767 66.5827 28.0867C65.9395 27.813 65.3148 27.4976 64.7126 27.1425C64.0646 26.7987 63.4753 26.3539 62.9671 25.8248C62.5274 25.3082 62.1727 24.7249 61.9163 24.0968C60.9076 21.641 61.5817 18.8153 63.5905 17.0794C65.0156 15.8209 66.9511 15.1914 69.397 15.1914C71.4389 15.1914 73.119 15.6426 74.4373 16.545C75.7168 17.3957 76.6563 18.6695 77.0912 20.1431L73.6715 21.2829C73.3279 20.5111 72.7478 19.8686 72.0149 19.4483C71.1287 18.9566 70.1249 18.7164 69.1121 18.7535C68.1187 18.6965 67.1346 18.9723 66.3155 19.5373C65.6367 20.0634 65.2576 20.888 65.3003 21.7458C65.3063 22.4013 65.5912 23.0232 66.0837 23.4559C66.5571 23.9218 67.1127 24.2962 67.7223 24.5601C68.2926 24.7976 69.1595 25.1182 70.3231 25.5218C71.035 25.7835 71.5633 25.9795 71.9078 26.1097C72.2523 26.2399 72.757 26.4596 73.4219 26.7686C73.9549 27.0045 74.4673 27.2845 74.9536 27.6058C75.389 27.9191 75.8053 28.2581 76.2003 28.6211C76.6297 28.9936 76.9966 29.4325 77.2871 29.9211C77.5636 30.428 77.7788 30.966 77.928 31.5238C78.1099 32.1791 78.2 32.8566 78.1957 33.5367C78.1957 35.8644 77.3999 37.6869 75.8087 39.0044C74.2175 40.3228 72.1754 40.982 69.6822 40.9818ZM92.5153 40.5544L83.9659 15.6188H87.9559L93.6196 33.0025C93.9328 33.9374 94.1944 34.8888 94.4033 35.8523C94.6119 34.8887 94.8736 33.9373 95.1871 33.0025L100.78 15.6188H104.734L96.2199 40.5544H92.5153ZM112.285 40.5544V15.619H127.745V19.1101H115.99V25.9494H123.577V29.4406H115.99V37.0633H128.529V40.5544H112.285ZM137.968 40.5544V15.619H141.673V36.9923H153.856V40.5544H137.968ZM167.819 19.1811V40.5544H164.114V19.1811H157.061V15.619H174.872V19.1811L167.819 19.1811ZM182.531 40.5544V15.619H197.991V19.1101H186.236V25.9494H193.823V29.4406H186.236V37.0633H198.774V40.5544H182.531Z"/><g id="Group_2"><path id="Vector_2" fill="#FF3E00" d="M43.6994 10.8763C39.352 4.65408 30.7659 2.80978 24.5577 6.76521L13.6546 13.7142C10.6764 15.5879 8.62503 18.6293 8.00356 22.0925C7.48349 24.9776 7.94062 27.9538 9.3026 30.5498C8.36934 31.9655 7.73281 33.5558 7.4315 35.2245C6.80402 38.7542 7.62479 42.388 9.70854 45.3053C14.0569 51.5282 22.6431 53.3717 28.8503 49.4165L39.7533 42.4674C42.7317 40.594 44.7832 37.5525 45.4044 34.0891C45.9243 31.204 45.4675 28.228 44.1062 25.6316C45.0392 24.2159 45.6754 22.6257 45.9765 20.9572C46.6044 17.4274 45.7835 13.7935 43.6994 10.8763Z"/><path id="Vector_3" fill="white" d="M23.4925 45.8907C19.9781 46.8044 16.267 45.4287 14.1973 42.4451C12.9439 40.6908 12.4502 38.5056 12.8276 36.3828C12.8909 36.0378 12.9779 35.6976 13.0882 35.3646L13.2935 34.7385L13.852 35.1488C15.1421 36.0967 16.5845 36.8174 18.1171 37.2798L18.5223 37.4027L18.485 37.8072C18.4355 38.3825 18.5913 38.9568 18.9248 39.4283C19.5477 40.327 20.6651 40.7418 21.7235 40.4671C21.9605 40.4037 22.1863 40.3045 22.3932 40.1727L33.2963 33.2245C33.8357 32.8848 34.2075 32.334 34.3207 31.7067C34.4338 31.0669 34.285 30.4085 33.9079 29.8794C33.2847 28.9805 32.167 28.5656 31.1081 28.8401C30.8715 28.9034 30.6459 29.0026 30.4393 29.1342L26.2786 31.7865C25.5945 32.2215 24.8479 32.5493 24.0646 32.7587C20.5502 33.6725 16.8389 32.2968 14.7691 29.3131C13.5158 27.5589 13.022 25.3736 13.3995 23.2508C13.7731 21.1683 15.0069 19.3395 16.798 18.2132L27.7004 11.2643C28.3848 10.8286 29.132 10.5003 29.9159 10.2909C33.4302 9.37717 37.1415 10.7528 39.2112 13.7365C40.4645 15.4908 40.9583 17.6761 40.5808 19.7988C40.5173 20.1437 40.4303 20.4839 40.3203 20.817L40.115 21.4431L39.5567 21.0334C38.2667 20.085 36.8242 19.364 35.2913 18.9015L34.8861 18.7785L34.9234 18.3741C34.9725 17.7988 34.8168 17.2246 34.4836 16.753C33.8608 15.8543 32.7434 15.4395 31.6849 15.7142C31.448 15.7776 31.2221 15.8768 31.0153 16.0086L20.1119 22.9571C19.5724 23.2966 19.2008 23.8475 19.0881 24.4749C18.9744 25.1147 19.1229 25.7733 19.5002 26.3024C20.1234 27.2013 21.2411 27.6162 22.2999 27.3418C22.5368 27.2783 22.7626 27.179 22.9696 27.0474L27.1297 24.3961C27.8136 23.9606 28.5602 23.6324 29.3435 23.4231C32.8579 22.5093 36.5692 23.885 38.6389 26.8687C39.8923 28.623 40.386 30.8082 40.0086 32.931C39.6347 35.0136 38.4011 36.8426 36.6101 37.9694L25.7079 44.9173C25.0234 45.353 24.2763 45.6813 23.4924 45.8907"/></g></g></g></svg>

<svg xmlns="http://www.w3.org/2000/svg" fill="none" aria-hidden="true" viewBox="0 0 206 57"><path fill="#4A4A55" d="M69.682 40.982a10.065 10.065 0 0 1-5.735-1.62 8.307 8.307 0 0 1-3.349-4.436l3.492-1.282a6.44 6.44 0 0 0 2.28 2.76 6.005 6.005 0 0 0 3.455 1.016 5.074 5.074 0 0 0 3.294-.998 3.459 3.459 0 0 0 1.23-2.85 3.116 3.116 0 0 0-.339-1.442 4.319 4.319 0 0 0-.766-1.087 5.168 5.168 0 0 0-1.318-.873 19.582 19.582 0 0 0-1.478-.676 46.667 46.667 0 0 0-1.728-.624 55.872 55.872 0 0 1-2.137-.783 16.052 16.052 0 0 1-1.87-.944 6.913 6.913 0 0 1-1.746-1.318 6.392 6.392 0 0 1-1.05-1.728 6.174 6.174 0 0 1 1.673-7.017c1.426-1.259 3.361-1.888 5.807-1.888 2.042 0 3.722.45 5.04 1.353a6.545 6.545 0 0 1 2.654 3.598l-3.42 1.14a3.981 3.981 0 0 0-1.656-1.835 5.565 5.565 0 0 0-2.903-.694 4.475 4.475 0 0 0-2.796.783 2.63 2.63 0 0 0-1.016 2.209c.006.655.291 1.277.784 1.71.473.466 1.029.84 1.638 1.104.57.238 1.438.558 2.601.962.712.262 1.24.458 1.585.588.344.13.85.35 1.514.659a10.53 10.53 0 0 1 1.532.837c.435.313.851.652 1.246 1.015.43.373.797.812 1.087 1.3.277.507.492 1.045.641 1.603a7.36 7.36 0 0 1 .268 2.013c0 2.328-.796 4.15-2.387 5.468-1.591 1.318-3.634 1.977-6.127 1.977Zm22.833-.428L83.966 15.62h3.99l5.664 17.384c.313.934.574 1.886.783 2.85.209-.964.47-1.916.784-2.85l5.593-17.384h3.954L96.22 40.554h-3.705Zm19.77 0V15.62h15.46v3.491H115.99v6.84h7.587v3.49h-7.587v7.623h12.539v3.491h-16.244Zm25.683 0V15.62h3.705v21.373h12.183v3.563h-15.888Zm29.851-21.373v21.373h-3.705V19.181h-7.053V15.62h17.811v3.562h-7.053Zm14.712 21.373V15.62h15.46v3.491h-11.755v6.84h7.587v3.49h-7.587v7.623h12.538v3.491h-16.243Z"/><path fill="#FF3E00" d="M43.7 10.876c-4.348-6.222-12.934-8.066-19.142-4.11l-10.903 6.948a12.508 12.508 0 0 0-5.651 8.379 13.174 13.174 0 0 0 1.299 8.457 12.543 12.543 0 0 0-1.871 4.674 13.33 13.33 0 0 0 2.277 10.081c4.348 6.223 12.934 8.067 19.141 4.111l10.903-6.948a12.506 12.506 0 0 0 5.651-8.379 13.18 13.18 0 0 0-1.298-8.457 12.542 12.542 0 0 0 1.87-4.675 13.327 13.327 0 0 0-2.276-10.08Z"/><path fill="#fff" d="M23.493 45.89a8.66 8.66 0 0 1-9.296-3.445 8.015 8.015 0 0 1-1.37-6.062c.064-.345.151-.685.261-1.018l.206-.626.558.41a14.064 14.064 0 0 0 4.265 2.13l.405.124-.037.404c-.05.576.106 1.15.44 1.621a2.608 2.608 0 0 0 2.799 1.04c.236-.064.462-.163.67-.295l10.902-6.948c.54-.34.912-.89 1.025-1.518a2.422 2.422 0 0 0-.413-1.828 2.61 2.61 0 0 0-2.8-1.039 2.4 2.4 0 0 0-.669.294l-4.16 2.653a7.957 7.957 0 0 1-2.214.972 8.66 8.66 0 0 1-9.296-3.446 8.015 8.015 0 0 1-1.37-6.062 7.52 7.52 0 0 1 3.399-5.038L27.7 11.264a7.944 7.944 0 0 1 2.216-.973 8.66 8.66 0 0 1 9.295 3.446 8.015 8.015 0 0 1 1.37 6.062 7.68 7.68 0 0 1-.26 1.018l-.206.626-.558-.41a14.054 14.054 0 0 0-4.266-2.131l-.405-.123.037-.405a2.45 2.45 0 0 0-.44-1.62 2.608 2.608 0 0 0-2.798-1.04 2.4 2.4 0 0 0-.67.295l-10.903 6.948c-.54.34-.911.89-1.024 1.518-.114.64.035 1.298.412 1.827a2.61 2.61 0 0 0 2.8 1.04 2.41 2.41 0 0 0 .67-.294l4.16-2.652a7.93 7.93 0 0 1 2.213-.973 8.66 8.66 0 0 1 9.296 3.446 8.015 8.015 0 0 1 1.37 6.062 7.524 7.524 0 0 1-3.399 5.039l-10.902 6.947a7.942 7.942 0 0 1-2.216.974"/></svg>
